packages/amis-editor-core/src/icons/copy-btn.svg

<?xml version="1.0" encoding="UTF-8"?>
<svg width="15px" height="15px" viewBox="0 0 15 15" version="1.1" xmlns="http://www.w3.org/2000/svg" xmlns:xlink="http://www.w3.org/1999/xlink">
    <g id="icon/复制" stroke="none" stroke-width="1" fill="none" fill-rule="evenodd">
        <g fill="#FFFFFF" fill-rule="nonzero" id="形状结合">
            <path d="M11,1.6 C12.2702549,1.6 13.3100212,2.58683903 13.3944631,3.83568127 L13.4,4 L13.4,9 C13.4,10.2702549 12.413161,11.3100212 11.1643187,11.3944631 L11,11.4 L10.3666299,11.4011113 C10.175741,12.5356498 9.1888104,13.4 8,13.4 L8,13.4 L4,13.4 C2.6745166,13.4 1.6,12.3254834 1.6,11 L1.6,11 L1.6,6 C1.6,4.6745166 2.6745166,3.6 4,3.6 L4,3.6 L4.63174665,3.60004327 C4.80954156,2.51809714 5.71373943,1.68078497 6.8269318,1.6055152 L6.99060746,1.6 L11,1.6 Z M8,4.4 L4,4.4 C3.1163444,4.4 2.4,5.1163444 2.4,6 L2.4,6 L2.4,11 C2.4,11.8836556 3.1163444,12.6 4,12.6 L4,12.6 L8,12.6 C8.8836556,12.6 9.6,11.8836556 9.6,11 L9.6,11 L9.6,6 C9.6,5.1163444 8.8836556,4.4 8,4.4 L8,4.4 Z M5.8,10.1 C5.91045695,10.1 6,10.1895431 6,10.3 L6,10.7 C6,10.8104569 5.91045695,10.9 5.8,10.9 L3.71745275,10.9 C3.6069958,10.9 3.51745275,10.8104569 3.51745275,10.7 L3.51745275,10.3 C3.51745275,10.1895431 3.6069958,10.1 3.71745275,10.1 L5.8,10.1 Z M11,2.4 L6.99060746,2.4 C6.24679493,2.4 5.62222815,2.91055172 5.44823188,3.6003304 L8,3.6 C9.3254834,3.6 10.4,4.6745166 10.4,6 L10.4,6 L10.399,10.6 L11,10.6 C11.8345636,10.6 12.5198898,9.96103848 12.5934613,9.14563261 L12.6,9 L12.6,4 C12.6,3.16543638 11.9610385,2.48011021 11.1456326,2.40653868 L11,2.4 Z M8.3,8.1 C8.41045695,8.1 8.5,8.18954305 8.5,8.3 L8.5,8.7 C8.5,8.81045695 8.41045695,8.9 8.3,8.9 L3.71745275,8.9 C3.6069958,8.9 3.51745275,8.81045695 3.51745275,8.7 L3.51745275,8.3 C3.51745275,8.18954305 3.6069958,8.1 3.71745275,8.1 L8.3,8.1 Z M8.3,6.1 C8.41045695,6.1 8.5,6.18954305 8.5,6.3 L8.5,6.7 C8.5,6.81045695 8.41045695,6.9 8.3,6.9 L3.71745275,6.9 C3.6069958,6.9 3.51745275,6.81045695 3.51745275,6.7 L3.51745275,6.3 C3.51745275,6.18954305 3.6069958,6.1 3.71745275,6.1 L8.3,6.1 Z"></path>
        </g>
    </g>
</svg>

<svg width="15" height="15" xmlns="http://www.w3.org/2000/svg"><path d="M11 1.6a2.4 2.4 0 0 1 2.394 2.236L13.4 4v5a2.4 2.4 0 0 1-2.236 2.394L11 11.4l-.633.001A2.4 2.4 0 0 1 8 13.4H4A2.4 2.4 0 0 1 1.6 11V6A2.4 2.4 0 0 1 4 3.6h.632a2.392 2.392 0 0 1 2.195-1.994L6.99 1.6H11ZM8 4.4H4A1.6 1.6 0 0 0 2.4 6v5A1.6 1.6 0 0 0 4 12.6h4A1.6 1.6 0 0 0 9.6 11V6A1.6 1.6 0 0 0 8 4.4Zm-2.2 5.7c.11 0 .2.09.2.2v.4a.2.2 0 0 1-.2.2H3.717a.2.2 0 0 1-.2-.2v-.4c0-.11.09-.2.2-.2H5.8ZM11 2.4H6.99c-.743 0-1.368.51-1.542 1.2H8A2.4 2.4 0 0 1 10.4 6l-.001 4.6H11a1.6 1.6 0 0 0 1.593-1.454L12.6 9V4a1.6 1.6 0 0 0-1.454-1.593L11 2.4ZM8.3 8.1c.11 0 .2.09.2.2v.4a.2.2 0 0 1-.2.2H3.717a.2.2 0 0 1-.2-.2v-.4c0-.11.09-.2.2-.2H8.3Zm0-2c.11 0 .2.09.2.2v.4a.2.2 0 0 1-.2.2H3.717a.2.2 0 0 1-.2-.2v-.4c0-.11.09-.2.2-.2H8.3Z" fill="#FFF"/></svg>
